rospo-light/16x16/actions/grid-rectangular.svg

<?xml version="1.0" encoding="UTF-8" standalone="no"?>
<svg xmlns="http://www.w3.org/2000/svg" width="22" height="22" viewBox="0 0 22 22">
 <defs>
  <style type="text/css" id="current-color-scheme">
   .ColorScheme-Text { color:#5c616c; } .ColorScheme-Highlight { color:#5294e2; }
  </style>
 </defs>
 <path style="fill:currentColor;opacity:1" class="ColorScheme-Text" transform="translate(3 3)" d="M 2 1.0039062 L 2 2.0039062 L 1 2.0039062 L 1 4.0039062 L 2 4.0039062 L 2 7.0039062 L 1 7.0039062 L 1 9.0039062 L 2 9.0039062 L 2 12.003906 L 1 12.003906 L 1 14.003906 L 2 14.003906 L 2 15.003906 L 4 15.003906 L 4 14.003906 L 7 14.003906 L 7 15.003906 L 9 15.003906 L 9 14.003906 L 12 14.003906 L 12 15.003906 L 14 15.003906 L 14 14.003906 L 15 14.003906 L 15 12.003906 L 14 12.003906 L 14 9.0039062 L 15 9.0039062 L 15 7.0039062 L 14 7.0039062 L 14 4.0039062 L 15 4.0039062 L 15 2.0039062 L 14 2.0039062 L 14 1.0039062 L 12 1.0039062 L 12 2.0039062 L 9 2.0039062 L 9 1.0039062 L 7 1.0039062 L 7 2.0039062 L 4 2.0039062 L 4 1.0039062 L 2 1.0039062 z M 4 4.0039062 L 7 4.0039062 L 7 7.0039062 L 4 7.0039062 L 4 4.0039062 z M 9 4.0039062 L 12 4.0039062 L 12 7.0039062 L 9 7.0039062 L 9 4.0039062 z M 4 9.0039062 L 7 9.0039062 L 7 12.003906 L 4 12.003906 L 4 9.0039062 z M 9 9.0039062 L 12 9.0039062 L 12 12.003906 L 9 12.003906 L 9 9.0039062 z"/>
</svg>

<svg height="16" viewBox="0 0 16 16" width="16" xmlns="http://www.w3.org/2000/svg"><path d="m2 1.0039062v1h-1v2h1v3h-1v2h1v2.9999998h-1v2h1v1h2v-1h3v1h2v-1h3v1h2v-1h1v-2h-1v-2.9999998h1v-2h-1v-3h1v-2h-1v-1h-2v1h-3v-1h-2v1h-3v-1zm2 3h3v3h-3zm5 0h3v3h-3zm-5 5h3v2.9999998h-3zm5 0h3v2.9999998h-3z" fill="#5c616c"/></svg>
